Newaita-dark/.DP/24/guake-indicator.svg

<svg xmlns="http://www.w3.org/2000/svg" xmlns:xlink="http://www.w3.org/1999/xlink" width="24px" height="24px" viewBox="0 0 24 24" version="1.1">
<g id="surface1">
<path style=" stroke:none;fill-rule:nonzero;fill:rgb(93.333334%,93.333334%,93.333334%);fill-opacity:1;" d="M 3.96875 4.15625 C 3.421875 4.15625 2.976562 4.601562 2.976562 5.148438 L 2.976562 19.039062 C 2.976562 19.589844 3.421875 20.03125 3.96875 20.03125 L 19.84375 20.03125 C 20.394531 20.03125 20.835938 19.589844 20.835938 19.039062 L 20.835938 5.148438 C 20.835938 4.601562 20.394531 4.15625 19.84375 4.15625 Z M 9.914062 7.625 C 10.179688 7.625 10.4375 7.734375 10.621094 7.921875 L 14.09375 11.398438 C 14.289062 11.59375 14.390625 11.859375 14.382812 12.132812 C 14.371094 12.40625 14.25 12.664062 14.039062 12.84375 L 10.566406 15.820312 C 10.296875 16.058594 9.925781 16.132812 9.585938 16.015625 C 9.25 15.898438 9.003906 15.609375 8.9375 15.257812 C 8.875 14.90625 9.007812 14.546875 9.28125 14.320312 L 11.945312 12.039062 L 9.226562 9.320312 C 8.9375 9.039062 8.84375 8.613281 9 8.242188 C 9.148438 7.867188 9.507812 7.625 9.914062 7.625 Z M 9.914062 7.625 "/>
</g>
</svg>

<svg xmlns="http://www.w3.org/2000/svg" width="32" height="32" viewBox="0 0 24 24"><path d="M3.969 4.156a.989.989 0 0 0-.992.992V19.04c0 .55.441.992.992.992h15.875c.55 0 .996-.441.996-.992V5.15a.992.992 0 0 0-.996-.993zm5.945 3.469c.266 0 .52.105.707.297l3.473 3.476c.195.192.3.461.289.735a1 1 0 0 1-.344.71l-3.473 2.977a.982.982 0 0 1-.976.196.993.993 0 0 1-.652-.758.989.989 0 0 1 .343-.938l2.664-2.28-2.722-2.72a.997.997 0 0 1-.227-1.078.99.99 0 0 1 .918-.617zm0 0" fill="#bdbdbd"/></svg>
